X: 28252
T: Mrs. James MacInnes - Edinburgh
R: strathspey
M: 4/4
K: Gmajor
D|(D>G)(B>G) cA T(B2|c)<.AB>G A(A,~A,2)|(D>G)(B>G) cGBg|ec B/c/d/c/ B<(G G).D|
(D>G)(B>G) cA T(B2|c)<.AB>G A(A,~A,2)|(D>G)(B>G) cGBg|ec B/c/d/c/ B<GG||
e/f/|~g>d B<g d<b Tg2|dbge f(a a)g/f/|gdBg dgBg|ec B/c/d/c/ B(GG)e/f/|
g>d B<g d<b g2|d<bg>e f<(a a>).f|gd (3gab (3agf gd|(3edc (3Bcd BG G||

